X:23
T:Clear Into Morning* (sj)
B:NFID.160b ("untitled slip jig")
023clear
S:F&MB
L:1/8
M:9/8
R:slip jig
Q:300
K:G
BdB BAB g3|BdB BAB dcA|BdB BAB g3|gfe fed ecA:|
afd def g2b|afd dfa gfe|afd def g2a|gfe fed ecA:|

%%%

